img/logo.svg

<?xml version="1.0" encoding="UTF-8" standalone="no"?>
<svg width="300px" height="300px" viewBox="0 0 300 300" version="1.1" xmlns="http://www.w3.org/2000/svg" xmlns:xlink="http://www.w3.org/1999/xlink" xmlns:sketch="http://www.bohemiancoding.com/sketch/ns">
    <!-- Generator: Sketch 3.3.3 (12072) - http://www.bohemiancoding.com/sketch -->
    <title>logo</title>
    <desc>Created with Sketch.</desc>
    <defs></defs>
    <g id="Page-1" stroke="none" stroke-width="1" fill="none" fill-rule="evenodd" sketch:type="MSPage">
        <g id="Artboard-3" sketch:type="MSArtboardGroup">
            <g id="logo" sketch:type="MSLayerGroup">
                <rect id="Rectangle-path-Copy" fill="#009741" sketch:type="MSShapeGroup" x="0" y="0" width="300" height="300"></rect>
                <path d="M163.501436,125.557533 C163.501436,139.791893 163.590454,154.026252 163.501436,168.260612 C163.412417,175.644686 161.899106,182.672901 157.982299,189.078362 C153.620401,196.195542 147.122062,200.554815 139.199431,202.601004 C129.407414,205.092017 119.526379,205.003052 109.9124,201.533427 C101.544676,198.59759 95.2243748,193.081776 90.6844398,185.519773 C89.9722932,184.363231 89.4381832,183.117724 88.7260365,181.961183 C88.4589815,181.516359 88.4589815,181.249465 88.9930915,180.893606 C95.4024115,177.068122 101.811731,173.153673 108.221051,169.239224 C108.755161,168.883365 108.933198,169.061294 109.200253,169.506118 C110.357491,171.552307 111.603748,173.509532 112.939023,175.377791 C116.677793,180.537747 121.751838,182.317042 127.894103,181.605324 C130.920726,181.249465 133.680294,180.270852 135.549679,177.690875 C137.241028,175.466756 137.864156,172.886778 138.131211,170.128871 C138.309248,168.260612 138.487284,166.303387 138.487284,164.435127 L138.487284,81.8758421 C138.487284,80.8082651 138.754339,80.6303356 139.822559,80.6303356 C147.389117,80.7193004 155.044694,80.6303356 162.611252,80.6303356 C163.501436,80.6303356 163.679472,80.8082651 163.679472,81.6979126 C163.501436,96.3770959 163.590454,110.967314 163.501436,125.557533 L163.501436,125.557533 L163.501436,125.557533 Z" id="Shape" fill="#FFFFFF" sketch:type="MSShapeGroup"></path>
                <path d="M184.865835,108.654231 C184.776817,114.881763 184.242707,112.835574 185.221909,119.241036 C186.20111,125.468568 188.604605,131.073347 192.788467,135.877444 C196.438219,140.058787 200.978153,143.172553 205.785143,145.841495 C211.482317,149.044226 217.624582,151.268345 223.58881,154.026252 C227.32758,155.716582 230.977331,157.317948 234.360028,159.719996 C241.659531,164.879951 241.392476,176.089509 232.045551,180.181888 C229.018928,181.427394 225.903287,181.961183 222.698627,182.050147 C216.64538,182.139112 211.037225,180.626711 206.230235,176.890192 C202.936557,174.310214 200.355025,171.107484 198.129567,167.548894 C197.862512,167.10407 197.773494,166.748211 197.061347,167.10407 C190.652027,170.840589 184.242707,174.577109 177.833387,178.224663 C177.388295,178.491558 177.210259,178.669487 177.477314,179.203276 C183.441542,190.234904 192.432394,197.618978 204.271832,201.444462 C209.879987,203.312722 215.666178,204.113405 221.096297,204.202369 C223.321755,204.291334 225.013103,204.202369 226.704452,204.113405 C232.846716,203.757546 238.810945,202.601004 244.508118,200.109991 C253.142896,196.284507 259.552216,190.234904 262.667858,181.071535 C264.804298,174.932968 264.448224,168.705435 264.003133,162.211009 C262.667858,142.193941 235.606285,131.785065 231.155368,129.738876 C208.722748,119.774824 221.808443,106.608042 234.181991,107.230795 C234.181991,107.230795 241.21444,117.8176 250.739401,118.885177 C250.739401,118.885177 251.807621,130.1837 263.290986,123.956168 C266.317609,122.265837 267.474848,115.326587 264.359206,110.967314 L261.955711,107.408725 C261.955711,107.408725 255.546391,87.5695859 249.849218,81.7868773 C249.849218,81.7868773 247.890815,71.8228257 249.849218,67.1966588 C249.849218,67.1966588 246.288485,69.1538832 245.220265,71.2000724 C245.220265,71.2000724 245.665356,65.2394344 246.733576,64.1718574 C246.733576,64.1718574 235.87334,70.7552487 235.250211,74.5807328 C235.250211,74.5807328 210.23606,67.0187293 192.343375,84.2778903 C192.343375,84.2778903 197.95153,83.5661723 200.355025,84.4558198 C200.355025,84.4558198 183.441542,91.4840348 178.990625,111.412138 L184.865835,108.654231 L184.865835,108.654231 Z" id="Shape" fill="#FFFFFF" sketch:type="MSShapeGroup"></path>
                <path d="M98.4514806,275.43999 L108.251481,275.43999 L108.251481,236.44999 L121.831481,236.44999 L121.831481,227.83999 L84.8714806,227.83999 L84.8714806,236.44999 L98.4514806,236.44999 L98.4514806,275.43999 Z M133.731481,276.06999 C142.971481,276.06999 150.111481,269.62999 150.111481,260.59999 C150.111481,251.49999 142.971481,244.98999 133.731481,244.98999 C124.491481,244.98999 117.281481,251.49999 117.281481,260.59999 C117.281481,269.62999 124.491481,276.06999 133.731481,276.06999 L133.731481,276.06999 Z M133.731481,268.08999 C129.531481,268.08999 126.941481,265.00999 126.941481,260.59999 C126.941481,256.11999 129.531481,253.10999 133.731481,253.10999 C137.931481,253.10999 140.451481,256.11999 140.451481,260.59999 C140.451481,265.00999 137.931481,268.08999 133.731481,268.08999 L133.731481,268.08999 Z M156.481481,275.43999 L165.931481,275.43999 L165.931481,259.47999 C165.931481,255.41999 167.611481,253.59999 171.251481,253.59999 C174.821481,253.59999 175.871481,255.48999 175.871481,258.98999 L175.871481,275.43999 L185.251481,275.43999 L185.251481,259.47999 C185.251481,255.41999 186.861481,253.59999 190.501481,253.59999 C194.071481,253.59999 195.191481,255.48999 195.191481,258.98999 L195.191481,275.43999 L204.571481,275.43999 L204.571481,258.14999 C204.571481,249.95999 200.231481,244.98999 192.741481,244.98999 C188.331481,244.98999 185.041481,247.01999 182.591481,250.09999 C180.771481,246.59999 178.041481,244.98999 174.191481,244.98999 C170.621481,244.98999 167.821481,246.59999 165.721481,250.23999 L165.931481,245.61999 L156.481481,245.61999 L156.481481,275.43999 Z M223.191481,276.06999 C232.571481,276.06999 235.441481,271.58999 235.441481,266.12999 C235.441481,259.82999 229.981481,257.79999 225.641481,256.81999 C221.581481,255.90999 219.691481,255.69999 219.691481,254.01999 C219.691481,252.82999 220.741481,252.26999 222.911481,252.26999 C225.151481,252.26999 227.251481,253.31999 228.651481,254.50999 L233.691481,249.11999 C231.241481,246.59999 227.741481,244.98999 222.841481,244.98999 C216.471481,244.98999 211.291481,247.71999 211.291481,254.43999 C211.291481,260.66999 215.841481,262.90999 219.901481,263.95999 C224.731481,265.21999 226.621481,265.21999 226.621481,266.82999 C226.621481,268.08999 225.641481,268.64999 222.561481,268.64999 C219.761481,268.64999 217.171481,267.45999 215.141481,265.49999 L209.611481,270.39999 C212.201481,273.47999 216.261481,276.06999 223.191481,276.06999 L223.191481,276.06999 Z M250.701481,266.82999 L253.221481,264.16999 L260.641481,275.43999 L271.631481,275.43999 L259.941481,257.79999 L270.511481,245.61999 L260.011481,245.61999 L250.211481,257.09999 C250.491481,255.20999 250.701481,252.89999 250.701481,250.65999 L250.701481,224.89999 L241.251481,224.89999 L241.251481,275.43999 L250.701481,275.43999 L250.701481,266.82999 Z" id="Tomsk-" fill="#FFFFFF" sketch:type="MSShapeGroup"></path>
            </g>
        </g>
    </g>
</svg>

<?xml version="1.0" encoding="UTF-8" standalone="no"?>
<svg xmlns="http://www.w3.org/2000/svg" height="300px" width="300px" version="1.1" xmlns:xlink="http://www.w3.org/1999/xlink" viewBox="0 0 300 300">
    <title>TomskJS</title>
    <desc>Логотип Томского фронтенд сообщества</desc>
    <rect height="300" width="300" y="0" x="0" fill="#009741"/>
    <path fill="#fff" d="m163.5 125.56c0 14.23 0.09 28.47 0 42.7-0.09 7.38-1.6 14.41-5.52 20.82-4.36 7.12-10.86 11.47-18.78 13.52-9.79 2.49-19.67 2.4-29.29-1.07-8.37-2.93-14.686-8.45-19.226-16.01-0.712-1.16-1.246-2.4-1.958-3.56-0.267-0.44-0.267-0.71 0.267-1.07 6.409-3.82 12.817-7.74 19.227-11.65 0.54-0.36 0.71-0.18 0.98 0.27 1.16 2.04 2.4 4 3.74 5.87 3.74 5.16 8.81 6.94 14.95 6.23 3.03-0.36 5.79-1.34 7.66-3.92 1.69-2.22 2.31-4.8 2.58-7.56 0.18-1.87 0.36-3.83 0.36-5.69v-82.564c0-1.068 0.26-1.246 1.33-1.246 7.57 0.089 15.22 0 22.79 0 0.89 0 1.07 0.178 1.07 1.068-0.18 14.679-0.09 29.272-0.18 43.862z"/>
    <path fill="#fff" d="m184.87 108.65c-0.09 6.23-0.63 4.19 0.35 10.59 0.98 6.23 3.38 11.83 7.57 16.64 3.65 4.18 8.19 7.29 13 9.96 5.69 3.2 11.83 5.43 17.8 8.19 3.74 1.69 7.39 3.29 10.77 5.69 7.3 5.16 7.03 16.37-2.31 20.46-3.03 1.25-6.15 1.78-9.35 1.87-6.05 0.09-11.66-1.42-16.47-5.16-3.29-2.58-5.87-5.78-8.1-9.34-0.27-0.45-0.36-0.8-1.07-0.45-6.41 3.74-12.82 7.48-19.23 11.12-0.44 0.27-0.62 0.45-0.35 0.98 5.96 11.03 14.95 18.42 26.79 22.24 5.61 1.87 11.4 2.67 16.83 2.76 2.22 0.09 3.91 0 5.6-0.09 6.15-0.35 12.11-1.51 17.81-4 8.63-3.83 15.04-9.88 18.16-19.04 2.13-6.14 1.78-12.36 1.33-18.86-1.33-20.02-28.39-30.42-32.84-32.47-22.44-9.97-9.35-23.13 3.02-22.51 0 0 7.03 10.59 16.56 11.66 0 0 1.07 11.29 12.55 5.07 3.03-1.69 4.18-8.63 1.07-12.99l-2.4-3.56s-6.41-19.84-12.11-25.623c0 0-1.96-9.964 0-14.59 0 0-3.56 1.957-4.63 4.003 0 0 0.45-5.961 1.51-7.028 0 0-10.86 6.583-11.48 10.409 0 0-25.01-7.562-42.91 9.697 0 0 5.61-0.712 8.02 0.178 0 0-16.92 7.028-21.37 26.954l5.88-2.76z"/>
    <path fill="#fff" d="m98.451 275.44h9.799v-38.99h13.58v-8.61h-36.959v8.61h13.58v38.99zm35.279 0.63c9.24 0 16.38-6.44 16.38-15.47 0-9.1-7.14-15.61-16.38-15.61s-16.45 6.51-16.45 15.61c0 9.03 7.21 15.47 16.45 15.47zm0-7.98c-4.2 0-6.79-3.08-6.79-7.49 0-4.48 2.59-7.49 6.79-7.49s6.72 3.01 6.72 7.49c0 4.41-2.52 7.49-6.72 7.49zm22.75 7.35h9.45v-15.96c0-4.06 1.68-5.88 5.32-5.88 3.57 0 4.62 1.89 4.62 5.39v16.45h9.38v-15.96c0-4.06 1.61-5.88 5.25-5.88 3.57 0 4.69 1.89 4.69 5.39v16.45h9.38v-17.29c0-8.19-4.34-13.16-11.83-13.16-4.41 0-7.7 2.03-10.15 5.11-1.82-3.5-4.55-5.11-8.4-5.11-3.57 0-6.37 1.61-8.47 5.25l0.21-4.62h-9.45v29.82zm66.71 0.63c9.38 0 12.25-4.48 12.25-9.94 0-6.3-5.46-8.33-9.8-9.31-4.06-0.91-5.95-1.12-5.95-2.8 0-1.19 1.05-1.75 3.22-1.75 2.24 0 4.34 1.05 5.74 2.24l5.04-5.39c-2.45-2.52-5.95-4.13-10.85-4.13-6.37 0-11.55 2.73-11.55 9.45 0 6.23 4.55 8.47 8.61 9.52 4.83 1.26 6.72 1.26 6.72 2.87 0 1.26-0.98 1.82-4.06 1.82-2.8 0-5.39-1.19-7.42-3.15l-5.53 4.9c2.59 3.08 6.65 5.67 13.58 5.67zm27.51-9.24l2.52-2.66 7.42 11.27h10.99l-11.69-17.64 10.57-12.18h-10.5l-9.8 11.48c0.28-1.89 0.49-4.2 0.49-6.44v-25.76h-9.45v50.54h9.45v-8.61z"/>
</svg>
